X:1
T:Title
%%score [ 1 2 3 4 ]
L:1/8
Q:1/4=90
M:4/4
K:A
V:1 treble nm="Midi_74"
V:2 treble nm="Midi_74"
V:3 treble-8 nm="Midi_74"
V:4 bass nm="Midi_74"
V:1
"^Round me falls the night""^William Romanis\n(1824-99)""^Adam Drese (1620-1701)\nharmonised by J. S. Bach (1685-1750)" A2 A2 G2 A2 | %1
w: ~~~~~~Round me falls the|
w: ~~~~Earth- ly work is|
w: ~~~~Bless- ed heaven- ly|
 B4 A2 B2 | c2 (BA) A4 ||[M:4/4] c2 d2 e2 d2 | c2 B2 c4 | B4 A2 B2 | c2 B2 A2 G2 | A3 G- G4 || %8
w: night; Sa- viour|be my * light|Thro' the hours of|dark- ness shroud-|ed Let me|see thy face un-|cloud- ed; *|
w: done, Earth- ly|sounds are * none;|Rest in sleep and|si- lence seek-|ing, Let me|hear Thee soft- ly|speak- ing; *|
w: Light Shin- ing|thro' earth's * night:|Voice that oft of|love has told|me; Arms so|strong to clasp and|hold me; *|
 A2 A2 G2 A2 | B4 A2 B2 | c2 (BA) A4 |] %11
w: Let Thy glo- ry|shine In this|heart of * mine.|
w: In my spi- rit's|ear Whi- sper|'I am * near.'|
w: Thou Thy watch wilt|keep, Sa- viour,|o'er my * sleep.|
V:2
 E2 E2 E2 (EF) | G4 F2 E2 | E2 E2 E4 ||[M:4/4] A2 A2 A3 B | (BA) (GB) (BA/G/ A2- | A2) G2 F2 G2 | %6
w: ~~~~~~Round me falls the *|night; Sa- viour|be my light|Thro' the hours of|dark\- * ness * shroud\- * * *|* ed Let me|
w: ~~~~Earth- ly work is *|done, Earth- ly|sounds are none;|Rest in sleep and|si\- * lence * seek\- * * *|* ing, Let me|
w: ~~~~Bless- ed heaven- ly *|Light Shin- ing|thro' earth's night:|Voice that oft of|love * has * told * * *|* me; Arms so|
 A2 G2- G F2 ^E | (F^E F2- F2) E2 || F2 =E2 E2 E2 | E4 (CF) E2 | (EA) G2 E4 |] %11
w: see thy * face un-|cloud\- * * * ed;|Let Thy glo- ry|shine In * this|heart * of mine.|
w: hear Thee * soft- ly|speak\- * * * ing;|In my spi- rit's|ear Whi\- * sper|'I * am near.'|
w: strong to * clasp and|hold * * * me:|Thou Thy watch wilt|keep, Sa\- * viour,|o'er * my sleep.|
V:3
 c2 c2 B2 c2 | e4 (cd) (cB- | B) A2 G c4 ||[M:4/4][K:treble-8] e2 f2 e2 (fe) | e2 e2 e4 | %5
w: ~~~~~~Round me falls the|night; Sa\- * viour *|* be my light|Thro' the hours of *|dark- ness shroud-|
w: ~~~~Earth- ly work is|done, Earth\- * ly *|* sounds are none;|Rest in sleep and *|si- lence seek-|
w: ~~~~Bless- ed heaven- ly|Light Shin\- * ing *|* thro' earth's night:|Voice that oft of *|love has told|
 e4 c2 e2 | e3 d c2 c2 | c4 c4 || c2 c2 B2 A2 | (A2 G2) (Ad) (cB) | (Ae) (e>d) c4 |] %11
w: ed Let me|see thy face un-|cloud- ed;|Let Thy glo- ry|shine * In * this *|heart * of * mine.|
w: ing, Let me|hear Thee soft- ly|speak- ing;|In my spi- rit's|ear * Whi\- * sper *|'I * am * near.'|
w: me; Arms so|strong to clasp and|hold me;|Thou Thy watch wilt|keep, * Sa\- * viour, *|o'er * my * sleep.|
V:4
 (A,,B,,) (C,D,) E,2 A,,2 | E,4 F,2 G,2 | A,2 E,2 A,,4 ||[M:4/4] (A,G,) F,2 C,2 (F,G,) | %4
w: ~~~~~~Round * me * falls the|night; Sa- viour|be my light|Thro' * the hours of *|
w: ~~~~Earth\- * ly * work is|done, Earth- ly|sounds are none;|Rest * in sleep and *|
w: ~~~~Bless\- * ed * heaven- ly|Light Shin- ing|thro' earth's night:|Voice * that oft of *|
 A,2 (E,G,) (A,2 A,,2) | E,4 F,2 E,2 | A,2 E,2 F,2 C,2 | (F,,G,,A,,B,, C,4) || %8
w: dark- ness * shroud\- *|ed Let me|see thy face un-|cloud\- * * * ed;|
w: si- lence * seek\- *|ing, Let me|hear Thee soft- ly|speak\- * * * ing;|
w: love has * told *|me; Arms so|strong to clasp and|hold * * * me;|
 F,2 (C,D,) E,2 (C,A,,) | E,4 F,2 G,2 | A,2 E,2 A,,4 |] %11
w: Let Thy * glo- ry *|shine In this|heart of mine.|
w: In my * spi- rit's *|ear Whi- sper|'I am near.'|
w: Thou Thy * watch wilt *|keep, Sa- viour,|o'er my sleep.|

